!!!!SEGMENT: pl-kk--kk-i-513--010_haser-august-ferdinand--miserere-averte-faciem-tuam.krn
!!!cenid: 17xx:1850
!!!COM: Häser, August Ferdinand
!!!COM-rismID: pe37240
!!!CDT: 1779/10/15-1844/11/01
!!!CNT: German
!!!OPR: Miserere
!!!OTL: Averte faciem tuam
!!!OMV: 010
!!!PDT:
!!!AGN: Sacred
!!!SMS-siglum: PL-Kk
!!!SMS-shelfmark: Kk.I.513
!!!SMS-shelfwork: 001-010 M
!!!SMS-variant:
!!!SMS-altvar:
!!!NIFC-rismSourceID: 1001138498
!!!NIFC-islandoraID: pl-kk:14834
!!!URL-pdf-islandora: https://repozytorium.nifc.pl/islandora/object/pl-kk%3A14834/datastream/PDF/view
!!!URL-scan: https://polish.musicsources.pl/pl/lokalizacje/galeria/rekopisy/6123 @EN{Scan on Polish Music Herritage in Open Access Website} @PL{Skany w portalu Dziedzictwo Muzyki Polskiej w otwartym dostępie}
!!!ONB-nifc:
!!!AIN: 1 alto 1 bass 1 empty 1 organ 1 soprn 1 tenor
!!!key:
**kern	**kern	**kern	**text	**kern	**text	**dynam	**kern	**text	**dynam	**kern	**text	**dynam
*part6	*part5	*part4	*part4	*part3	*part3	*part3	*part2	*part2	*part2	*part1	*part1	*part1
*staff6	*staff5	*staff4	*staff4	*staff3	*staff3	*	*staff2	*staff2	*	*staff1	*staff1	*
*Iempty	*Iorgan	*Ibass	*	*Itenor	*	*	*Ialto	*	*	*Isoprn	*	*
*	*I"[Organo]	*I"Basso.	*	*I"Tenore.	*	*	*I"Alto	*	*	*I"Soprano.	*	*
*	*I'[Org]	*I'B	*	*I'T	*	*	*I'A	*	*	*I'S	*	*
*clefF4	*clefG2	*clefF4	*	*clefC4	*	*	*clefG2	*	*	*clefG2	*	*
*k[b-]	*k[b-]	*k[b-]	*	*k[b-]	*	*	*k[b-]	*	*	*k[b-]	*	*
*d:	*d:	*d:	*	*d:	*	*	*d:	*	*	*d:	*	*
*M3/4	*M3/4	*M3/4	*	*M3/4	*	*	*M3/4	*	*	*M3/4	*	*
=1	=1	=1	=1	=1	=1	=1	=1	=1	=1	=1	=1	=1
*2\right	*2\right	*2\right	*	*2\right	*	*	*	*	*	*2\right	*	*
!LO:TX:t=P:problem=all\right&colon; global	!LO:TX:t=P:problem=all\right&colon; global	!LO:TX:t=P:problem=all\right&colon; global	!	!LO:TX:t=P:problem=all\right&colon; global	!	!	!	!	!	!LO:TX:t=P:problem=all\right&colon; global	!	!
!	!LO:TX:t=P:problem=w źródle brak oznaczenia tempa	!	!	!	!	!	!	!	!	!	!	!
!	!	!	!	!	!	!	!LO:TX:a:Bi:t=N 10.:problem='N 10.' znajduje się przed kluczem i oznaczeniem metrum na pięciolinii	!	!	!LO:TX:a:Bi:t=N. 10.:problem='N. 10.' znajduje się przed kluczem i oznaczeniem metrum na pięciolinii	!	!
!	!LO:TX:a:Bi:t=No 10.:problem='No 10.' znajduje się przed kluczem i oznaczeniem metrum na pięciolinii	!LO:TX:a:Bi:t=No 10.:problem='No 10.' znajduje się przed kluczem i oznaczeniem metrum na pięciolinii	!	!LO:TX:a:Bi:t=N 10.:problem='N 10.' znajduje się przed kluczem i oznaczeniem metrum na pięciolinii	!	!	!	!	!	!	!	!
!	!	!LO:TX:a:Bi:t=Stringendo.:rj	!	!	!	!	!	!	!	!LO:TX:b:Bi:t=Strivia tempo:rj	!	!
!	!	!LO:TX:a:Bi:t=Larghetto.:rj	!	!LO:TX:b:Bi:t=Larghetto:rj	!	!	!LO:TX:b:Bi:t=Larghetto.:rj	!	!	!LO:TX:a:Bi:t=Larghetto:rj	!	!
!	!	!	!	!	!	!	!	!	!	!LO:TX:a:Bi:t=3.	!	!
!	!	!	!	!	!	!	!	!	!	!LO:N:vis=0	!	!
4r	4r	4r	.	4r	.	.	4r	.	.	1.r	.	.
8.r	8.r	8r	.	8r	.	.	8r	.	.	.	.	.
!	!	!	!	!	!	!LO:DY:a:rj	!	!	!LO:DY:a:rj	!	!	!
.	.	8D\	A-	8D/	A-	f	8d/	A-	f	.	.	.
16D\	16d/	.	.	.	.	.	.	.	.	.	.	.
16E\LL	16e/LL	16E\LL	-ver-	16E/LL	-ver-	.	16e/LL	-ver-	.	.	.	.
16F\	16f/	16F\JJ	.	16F/JJ	.	.	16f/JJ	.	.	.	.	.
16G\	16g/	16G\LL	-te	16G/LL	-te	.	16g/LL	-te	.	.	.	.
16A\JJ	16a/JJ	16A\JJ	.	16A/JJ	.	.	16a/JJ	.	.	.	.	.
=2	=2	=2	=2	=2	=2	=2	=2	=2	=2	=2	=2	=2
2B-\	2b-/	4.B-\	fa-	4.B-\	fa-	.	4.b-/	fa-	.	.	.	.
.	.	8B-\	-ci-	8B-\	-ci-	.	8b-/	-ci-	.	.	.	.
4C#X/	4c#X/	4C#X/	-em	4C#X/	-em	.	4c#X/	-em	.	.	.	.
=3	=3	=3	=3	=3	=3	=3	=3	=3	=3	=3	=3	=3
4D\	2.d/	4.D/	fa-	4r	.	.	4.d/	fa-	.	2.r	.	.
!	!	!	!	!	!	!LO:DY:a:rj	!	!	!	!	!	!
4F 4D\	.	.	.	8.F/	fa-	pp	.	.	.	.	.	.
.	.	8D/	-ci-	.	.	.	8d/	-ci-	.	.	.	.
.	.	.	.	16F/	-ci-	.	.	.	.	.	.	.
4G 4BB-\	.	4BB-/	-em	4F/	-em	.	4d/	-em	.	.	.	.
=4	=4	=4	=4	=4	=4	=4	=4	=4	=4	=4	=4	=4
*^	*	*	*	*	*	*	*	*	*	*	*	*
!	!	!	!	!	!	!	!	!LO:TX:a:Bi:t=stringendo	!	!	!LO:TX:a:Bi:t=tutti	!	!
4F/	4AA\	4d/	4AA/	tu-	4F/	tu-	.	4d/	tu-	.	4r	.	.
8E/	4ryy	8c#X/L	8AA/	-am	8E/	-am	.	8c#X/	-am	.	8r	.	.
!	!	!	!	!	!	!	!	!	!	!	!	!	!LO:DY:a:rj
8A\	.	8a/J	8A\	a-	8A\	a-	.	8r	.	.	8a/	A-	f
16Bn\LL	4ryy	16bn\LL	16Bn\LL	-ver-	16Bn\LL	-ver-	.	4r	.	.	(>16bn\LL	-ver-	.
16c#X\	.	16cc#X\	16c#X\JJ	.	16c#X\JJ	.	.	.	.	.	16cc#X\JJ)	.	.
16d\	.	16dd\	16d\LL	-te	16d\LL	-te	.	.	.	.	(>16dd\LL	-te	.
16e\JJ	.	16ee\JJ	16e\JJ	.	16e\JJ	.	.	.	.	.	16ee\JJ)	.	.
!	!	!	!	!	!LO:LB:g=original	!	!	!	!	!	!	!	!
*v	*v	*	*	*	*	*	*	*	*	*	*	*	*
=5	=5	=5	=5	=5	=5	=5	=5	=5	=5	=5	=5	=5
!	!	!	!	!	!	!	!LO:TX:a:Bi:t=1	!	!	!	!	!
2fn\	2ffn\	4.f\	fa-	4.f\	fa-	.	2.r	.	.	4.ff\	fa-	.
.	.	8f\	-ci-	8f\	-ci-	.	.	.	.	8ff\	-ci-	.
!	!	!	!	!LO:TX:a:i:t=5	!	!	!	!	!	!	!	!
4G#X\	4g#X/	4G#X\	-em	4G#X/	-em	.	.	.	.	4g#X/	-em	.
!	!	!	!	!	!	!	!LO:TX:b:Bi:t=V S.	!	!	!	!	!
!	!	!LO:LB:g=original	!	!	!	!	!LO:PB:g=original	!	!	!	!	!
=6	=6	=6	=6	=6	=6	=6	=6	=6	=6	=6	=6	=6
*^	*^	*	*	*	*	*	*	*	*	*	*	*
!	!	!	!	!	!	!	!	!	!LO:TX:a:Bi:t=a tempo	!	!	!	!	!
4r	2A\	2a/	4r	4.A\	fa-	4r	.	.	4r	.	.	4.a/	fa-	.
!	!	!	!	!	!	!	!	!	!	!	!LO:DY:b:rj	!	!	!
2d/	.	.	2f\	.	.	8.d\	fa-	.	8.f/	fa-	p	.	.	.
.	.	.	.	8A\	-ci-	.	.	.	.	.	.	8a/	-ci-	.
.	.	.	.	.	.	16d\	-ci-	.	16f/	-ci-	.	.	.	.
.	4B-\	4b-/	.	4B-\	-em	4d\	-em	.	4f/	-em	.	4dd\	-em	.
=7	=7	=7	=7	=7	=7	=7	=7	=7	=7	=7	=7	=7	=7	=7
2.e/	4G\	2dd/	4b-\	4G\	tu-	2.e\	tu-	.	4b-/	tu-	.	(>2dd\	tu-	.
.	2A\	.	4.a\	2A\	.	.	.	.	4.a/	.	.	.	.	.
.	.	4cc#X/	.	.	.	.	.	.	.	.	.	4cc#X\)	.	.
.	.	.	8g\	.	.	.	.	.	8g/	.	.	.	.	.
!	!	!	!	!	!	!	!	!	!	!	!	!LO:LB:g=original	!	!
*v	*v	*	*	*	*	*	*	*	*	*	*	*	*	*
=8	=8	=8	=8	=8	=8	=8	=8	=8	=8	=8	=8	=8	=8
2B-\	2dd 2f/	2ryy	8B-\	-am	8d\	-am	.	8f/	-am	.	8dd\	-am	.
.	.	.	4B-\	a	4d\	a	.	4f/	a	.	4dd\	a	.
.	.	.	8B-\	pec-	8d\	pec-	.	8f/	pec-	.	8dd\	pec-	.
8cL 8A\	8ee-X/L	4f#X\	8A\	-ca-	8c\	-ca-	.	8f#X/	-ca-	.	8ee-X\	-ca-	.
8e-XJ 8c\	8f#/J	.	8c\	-tis	8e-X\	-tis	.	8f#/	-tis	.	8f#X/	-tis	.
!LO:LB:g=original	!LO:LB:g=original	!	!	!	!	!	!	!	!	!	!	!	!
*	*v	*v	*	*	*	*	*	*	*	*	*	*	*
=9	=9	=9	=9	=9	=9	=9	=9	=9	=9	=9	=9	=9
4e-X 4c\	4a 4f#X/	4c\	me-	4e-X\	me-	.	4f#X/	me-	.	4a/	me-	.
!	!	!LO:TX:t=P:problem:problem=w źródle 4d poprawione na 4B-	!	!	!	!	!	!	!	!	!	!
4d 4B-\	4g/	4B-\	-is,	4d\	-is	.	4g/	-is	.	4g/	-is	.
4r	4r	4r	.	4r	.	.	4r	.	.	4r	.	.
=10	=10	=10	=10	=10	=10	=10	=10	=10	=10	=10	=10	=10
8r	8r	8r	.	8r	.	.	8r	.	.	8r	.	.
!LO:SIC:s=2Bn:v	!	!	!	!	!	!	!	!	!	!	!	!
2B-\	4.dd 4.g/	4Bn\	a	4d\	a	.	4g/	a	.	4dd\	a	.
.	.	8B\	pec-	8d\	pec-	.	8g/	pec-	.	8dd\	pec-	.
.	8ffnL 8g#X/	8B\	-ca-	8d\	-ca-	.	8g#X/	-ca-	.	8ff\	-ca-	.
8d\	8g#/J	8d\	-tis	8f\	-tis	.	8g#/	-tis	.	8g#X/	-tis	.
!	!	!	!	!LO:LB:g=original	!	!	!	!	!	!	!	!
=11	=11	=11	=11	=11	=11	=11	=11	=11	=11	=11	=11	=11
4f 4d\	4bn 4g#X/	4d\	me-	4f\	me-	.	4g#X/	me-	.	4bn/	me-	.
4e 4c#X\	4a/	4c#X\	-is	4e\	-is	.	4a/	-is	.	4a/	-is,	.
8r	8r	8r	.	8r	.	.	8r	.	.	8r	.	.
8A\	8a/	8A\	et	8A\	et	.	8a/	et	.	8a/	et	.
!	!	!LO:LB:g=original	!	!	!	!	!LO:LB:g=original	!	!	!	!	!
=12	=12	=12	=12	=12	=12	=12	=12	=12	=12	=12	=12	=12
*^	*^	*	*	*	*	*	*	*	*	*	*	*
4.d\	4ryy	4.ff/	2a\	4d\	o-	4d\	o-	.	4a/	o-	.	4ff\	o-	.
.	8ryy	.	.	8D\	-mnes	8d\	-mnes	.	8a/	-mnes	.	8ff\	-mnes	.
8c#X/	8E\L	8ee/L	.	8E\	i-	8c#X\	i-	.	8a/	i-	.	8ee\	i-	.
4d/	8F\	8dd/	4ryy	8F\	-ni-	8d\	-ni-	.	8a/	-ni-	.	8dd\	-ni-	.
.	8F#X\J	8cc/J	.	8F#X\	-qvi-	8d\	-qvi-	.	8a/	-qvi-	.	8cc\	-qvi-	.
!	!	!	!	!	!	!	!	!	!	!	!	!LO:LB:g=original	!	!
*	*	*v	*v	*	*	*	*	*	*	*	*	*	*	*
=13	=13	=13	=13	=13	=13	=13	=13	=13	=13	=13	=13	=13	=13
2.d/	8G\L	8b-XL 8g/	8G\	-ta-	8d\	-ta-	.	8g/	-ta-	.	8b-/	-ta-	.
.	8A\J	8aJ 8f#X/	8A\	-tes	8d\	-tes	.	8f#X/	-tes	.	8a/	-tes	.
.	2B-\	4g/	4B-\	me-	4d\	me-	.	4g/	me-	.	4g/	me-	.
.	.	4a-X 4fn/	4B-\	-as	4d\	-as	.	4fn/	-as	.	4g#X/	-as	.
=14	=14	=14	=14	=14	=14	=14	=14	=14	=14	=14	=14	=14	=14
*	*	*^	*	*	*	*	*	*	*	*	*	*	*
!	!	!	!	!	!	!	!	!	!LO:TX:a:Bi:t=duo	!	!	!	!	!
2d/	2.A\	2.an/	4f\	2.A\	de-	(>2d\	de-	.	4f/	de-	.	2.a/	de-	.
.	.	.	2e\	.	.	.	.	.	2e/	.	.	.	.	.
4c#X/	.	.	.	.	.	4c#X\)	.	.	.	.	.	.	.	.
*v	*v	*	*	*	*	*	*	*	*	*	*	*	*	*
*	*v	*v	*	*	*	*	*	*	*	*	*	*	*
=15	=15	=15	=15	=15	=15	=15	=15	=15	=15	=15	=15	=15
2Bn 2G#X\	2dd 2f/	2G#X\	-le,	4r	.	.	2f/	-le	.	2dd\	-le,	.
!	!	!	!	!LO:N:vis=2	!	!	!	!	!	!	!	!
.	.	.	.	4B-\	-le	.	.	.	.	.	.	.
4r	4r	4r	.	4r	.	.	4r	.	.	4r	.	.
=16	=16	=16	=16	=16	=16	=16	=16	=16	=16	=16	=16	=16
*^	*^	*	*	*	*	*	*	*	*	*	*	*
2d/	2.A\	2.a/	4f\	2.A\	de-	2d\	de-	.	4f/	de-	.	2.a/	de-	.
!	!	!	!	!	!	!	!	!	!	!	!LO:DY:a:rj	!	!	!
.	.	.	2e\	.	.	.	.	.	2e/	.	pp	.	.	.
4c#X/	.	.	.	.	.	4c#X\	.	.	.	.	.	.	.	.
*v	*v	*	*	*	*	*	*	*	*	*	*	*	*	*
*	*v	*v	*	*	*	*	*	*	*	*	*	*	*
=17	=17	=17	=17	=17	=17	=17	=17	=17	=17	=17	=17	=17
2A 2D\	2a 2f/	2D/	-le.	2d\	-le	.	2f/	-le	.	2a/	-le.	.
4r	4r	4r	.	4r	.	.	4r	.	.	4r	.	.
==	==	==	==	==	==	==	==	==	==	==	==	==
*-	*-	*-	*-	*-	*-	*-	*-	*-	*-	*-	*-	*-
!!!system-decoration: [(s1,s2,s3,s4)][(s5,s6)]
!!!RDF**kern: > = above
!!!RDF**kern: < = below
!!!EED: Wojciech Jakubiak-Danek
!!!EEV: 2021-01-03
!!!ENC: Katarzyna Serwa
!!!END: 2020-01-01
